src/assets/images/icons/sunset.svg

<svg width="24" height="24" viewBox="0 0 24 24" fill="none" xmlns="http://www.w3.org/2000/svg">
<path d="M17 18C17 16.6739 16.4732 15.4021 15.5355 14.4645C14.5979 13.5268 13.3261 13 12 13C10.6739 13 9.40215 13.5268 8.46447 14.4645C7.52678 15.4021 7 16.6739 7 18M12 9V2M12 9L16 5M12 9L8 5M4.22 10.22L5.64 11.64M1 18H3M21 18H23M18.36 11.64L19.78 10.22M23 22H1" stroke="#181D27" stroke-width="2" stroke-linecap="round" stroke-linejoin="round"/>
</svg>

<svg xmlns="http://www.w3.org/2000/svg" fill="none" viewBox="0 0 24 24"><path stroke="#181D27" stroke-linecap="round" stroke-linejoin="round" stroke-width="2" d="M17 18a5 5 0 1 0-10 0m5-9V2m0 7 4-4m-4 4L8 5m-3.78 5.22 1.42 1.42M1 18h2m18 0h2m-4.64-6.36 1.42-1.42M23 22H1"/></svg>
